X:1
T:Ring Out, Ye Throbbing Stars of Night
T:Ring Out, Ye Throbbing Stars of Night
T:Mrs. J. H. Barbour
T:Anonymous, 1916
T:Public Domain Courtesy of the Cyber Hymnal™
T:Public Domain Courtesy of the Cyber Hymnal™
T:Public Domain Courtesy of the Cyber Hymnal™
C:Mrs. J. H. Barbour
Z:Public Domain
Z:Courtesy of the Cyber Hymnal™
%%score ( 1 2 ) ( 3 4 )
L:1/8
Q:1/4=105
M:4/4
K:Db
V:1 treble 
V:2 treble 
V:3 bass 
V:4 bass 
V:1
 [FA]2 [=E=G][FA] [_GB]2 [FA]2 | F2 [FA]2 [Fd]4 | [Fd]2 [Fc][Fd] [Fe]2 [Fd]2 | %3
w: 1.~Ring out, ye throb- bing|stars of night!|Fill all the world with|
w: 2.~Break forth in praise, an-|gel- ic throngs!|Spread Beth- lehem’s plains with|
w: 3.~Re- joice, ye wai- ting|Jews de- vout!|Let your vic- tor- ious|
w: 4.~Lift up, ye Gen- tiles|from a- far|Your voice of tri- umph|
w: 5.~Hark! how the bells to-|ge- ther chime!|All ring- ing in the|
 [Dc]2 [DB]2 [DE]3 [DF] | [CG]2 [CG]2 [Gc]2 [GB]2 | [FA]4 [EG]2 [DF]2 | [CE]2 [Fd]2 [Ec]2 [DB]2 | %7
w: rhyth- mic light For|which men long have|wait- ed; For|which men long have|
w: sweet- est songs, A|cloud of ut- tered|glo- ry, A|cloud of ut- tered|
w: faith ring out In|swell- ing Ben- e-|dic- tus, In|swell- ing Ben- e-|
w: to the star On|Si- on’s fore- head|flam- ing, On|Si- on’s fore- head|
w: gold- en time The|age of love and|glo- ry, The|age of love and|
 [Dc]4 [CA]2 z [FA] | [=E=G]2 [FA]2 [_GB]2 [FA]2 | F2 [FA]2 [Fd]2 [Fd]2 | [Fc]2 [Fd]2 [Fe]2 [Fd]2 | %11
w: wait- ed! Re-|peat the joy- ous|song that rolled From|Heav’n’s e- ter- nal|
w: glo- ry! En-|fold there- in the|shep- herds meek, And|those who fade- less|
w: dic- tus! The|night of watch- ing|now is past, Re-|demp- tion’s day has|
w: flam- ing! For|lo! It burns with|heav’n- ly fire, Of|cher- ished dreams and|
w: glo- ry! The|choirs of Heav’n and|those of earth U-|nite, O Christ! to|
 [Dc]2 [DB]2 [DE]3 [DF] | [CG]2 [CG]2 [Gc]2 [GB]2 | [FA]4 [EG]2 [DF]2 | [CE]2 [Ed]2 [Ec]2 [DB]2 | %15
w: depths of old When|earth was first cre-|at- ed, When|earth was first cre-|
w: pas- tures seek, Des-|cribed in pro- phets’|sto- ry, Des-|cribed in pro- phets’|
w: come at last, No|more can fear af-|flict us, No|more can fear af-|
w: vague de- sire Ful-|fill- ment now pro-|claim- ing, Ful-|fill- ment now pro-|
w: hail Thy birth, All|worlds as one a-|dore Thee, All|worlds as one a-|
 [DB]4 [CA]2 |[M:6/4] A2 | [Ge]4 [G=d]2 [Ge]4 [Gc]2 | [Fd]4 [GB]2 [FA]4 [FA]2 | %19
w: at- ed!|To-|ge- ther sing! For|God doth bring Je-|
w: sto- ry.|A-|dore your king! For|God doth bring E-|
w: flict us.|Let|trum- pets ring! For|God doth bring The|
w: claim- ing!|Let|pæ- ans ring! For|God doth bring The|
w: dore Thee!|One|an- them rolls from|ran- somed souls From|
 [GB]4 [Gc]2 [Gd]4 [GB]2 | [FA]4 F2 [FA]4 A2 |!<(! [GB]4!<)! [Gc]2 [Ad]4 A2 |!<(! [Af]6 [Ge]6 | %23
w: sus, the ev- er-|last- ing Lord, To|be by all His|works a-|
w: man- u- el the|ho- ly Child By|whom the world is|re- con-|
w: prom- ised heir of|Da- vid’s throne, Whose|king- dom all the|earth shall|
w: King all na- tions|longed to find! The|light and lead- er|of man-|
w: na- ture and each|liv- ing thing To|Thee, in- car- nate|Son and|
 [Fd]6- [Fd]4!<)! z2 |] %24
w: dored. *|
w: ciled. *|
w: own! *|
w: kind! *|
w: King! *|
V:2
 x8 | F2 x6 | x8 | x8 | x8 | x8 | x8 | x8 | x8 | F2 x6 | x8 | x8 | x8 | x8 | x8 | x6 |[M:6/4] A2 | %17
 x12 | x12 | x12 | x4 F2 x2 A2 x2 | x10 A2 | x12 | x12 |] %24
V:3
 [D,D]2 [D,D][D,D] [D,D]2 [D,D]2 | [D,D]2 [D,D]2 [D,A,]4 | [D,A,]2 [D,A,][D,A,] [D,A,]2 [D,A,]2 | %3
 [G,B,]2 [G,B,]2 [G,B,]3 [G,B,] | [A,,A,]2 [A,,A,]2 [A,,A,]2 [A,,A,]2 | [D,A,]4 [D,A,]2 [D,A,]2 | %6
 E,2 E,2 [E,F,]2 [F,=G,]2 | [F,=G,]4 [A,,A,]2 z [D,A,] | [D,D]2 [D,D]2 [D,D]2 [D,D]2 | %9
 [D,D]2 [D,D]2 [D,A,]2 [D,A,]2 | [D,A,]2 [D,A,]2 [D,A,]2 [D,A,]2 | [G,B,]2 [G,B,]2 [G,B,]3 [G,B,] | %12
 [A,,A,]2 [A,,A,]2 [A,,A,]2 [A,,A,]2 | [D,A,]4 [D,A,]2 [D,A,]2 | E,2 E,2 [E,F,]2 [E,=G,]2 | %15
 [E,=G,]4 [A,,A,]2 |[M:6/4] A,2 | [A,C]4 [A,C]2 [A,C]4 [A,E]2 | [D,D]4 [D,D]2 [D,D]4 [D,D]2 | %19
 [G,D]4 [G,=A,]2 [G,B,]4 [G,D]2 | [D,D]4 [D,A,]2 [D,D]4 [F,D]2 | [G,D]4 [G,D]2 [G,D]4 A,2 | %22
!<(! [A,D]6 [A,C]6 | [D,A,]6- [D,A,]4!<)! z2 |] %24
V:4
 x8 | x8 | x8 | x8 | x8 | x8 | E,2 E,2 x4 | x8 | x8 | x8 | x8 | x8 | x8 | x8 | E,2 E,2 x4 | x6 | %16
[M:6/4] A,2 | x12 | x12 | x12 | x12 | x10 A,2 | x12 | x12 |] %24

